!!!!SEGMENT: Lpi1001d-Missa_Philomena-Sanctus.krn
!!!id: Lpi1001d
!!!AGN: Mass; Sanctus
!!!voices: 2-4
!!!COM: Johannes Lupi
!!!OTL: Sanctus
**kern	**kern	**kern	**kern
*part4	*part3	*part2	*part1
*staff4	*staff3	*staff2	*staff1
*I"Bassus	*I"Tenor	*I"Altus	*I"Superius
*I'B	*I'T	*I'A	*I'S
*clefF4	*clefF4	*clefGv2	*clefG2
*k[b-]	*k[b-]	*k[b-]	*k[b-]
*F:	*F:	*F:	*F:
*M2/1	*M2/1	*M2/1	*M2/1
*met(C|)	*met(C|)	*met(C|)	*met(C|)
!!section: Sanctus
!!!OMD: Sanctus
=1	=1	=1	=1
1.C	1r	0r	0r
.	[1G	.	.
2C	.	.	.
=2	=2	=2	=2
2BB-y	2G]	0r	0r
2GG	2G	.	.
2.BB-y	2F	.	.
.	2D	.	.
4C	.	.	.
=3	=3	=3	=3
1D	2.F	0r	0r
.	4G	.	.
2.D	4A	.	.
.	4F	.	.
.	2B-y	.	.
4E	.	.	.
=4	=4	=4	=4
4F	2A	1.c	0r
4D	.	.	.
1G	2G	.	.
.	1A	.	.
2F#i	.	2c	.
=5	=5	=5	=5
0G	2G	2B-y	1r
.	2.B-y	2G	.
.	.	1B-y	2r
.	4A	.	.
.	4G	.	[2g
.	4F	.	.
=6	=6	=6	=6
0r	1E	1c	2g]
.	.	.	2g
.	[1D	2d	2f
.	.	[2f	2d
=7	=7	=7	=7
0r	1D]	4f]	1f
.	.	4e	.
.	.	1d	.
.	1r	.	1e
.	.	2c	.
=8	=8	=8	=8
0r	0r	2.B-y	1d
.	.	8AL	.
.	.	8GJ	.
.	.	2F	2r
.	.	2G	2d
=9	=9	=9	=9
0r	0r	2D	2d
.	.	2d	2d
.	.	2d	4G
.	.	.	4A
.	.	2d	4B-y
.	.	.	4c
=10	=10	=10	=10
0r	2r	4G	4d
.	.	4A	4c
.	2D	4B-y	4d
.	.	4G	4e
.	2D	2A	2f
.	2D	[2B-y	[2d
=11	=11	=11	=11
1r	4GG	2B-]	2d]
.	4AA	.	.
.	4BB-y	4A	4c
.	4C	4G	4B-y
2r	4D	1F	1A
.	4E	.	.
2D	4F	.	.
.	4G	.	.
=12	=12	=12	=12
2D	2A	0r	0r
2D	2.B-y	.	.
2GG	.	.	.
.	4A	.	.
[2C	4G	.	.
.	4F	.	.
=13	=13	=13	=13
4C]	4E	1c	0r
4BB-y	4D	.	.
4AA	1G	.	.
4GG	.	.	.
1AA	.	2c	.
.	2F#i	2c	.
=14	=14	=14	=14
2GG	2G	2B-y	0r
1G	2E	2c	.
.	1D	4d	.
.	.	4e	.
2F	.	4f	.
.	.	4d	.
=15	=15	=15	=15
1G	2r	2e	1g
.	2G	1d	.
1E	2G	.	2g
.	2G	2c	2g
=16	=16	=16	=16
2D	1A	2.d	2.f
2D	.	.	.
.	.	8cL	4e
.	.	8B-yJ	.
2D	1F	2.A	2d
[2F	.	.	2c
.	.	4B-y	.
=17	=17	=17	=17
4F]	2r	4c	1f
4E	.	4A	.
2D	2F	2B-y	.
2C	2G	2c	2e
2BB-y	[2B-y	2F	[2d
=18	=18	=18	=18
1E-i	4B-]	2.G	2d]
.	4A	.	.
.	2.G	.	2c
.	.	4A	.
1D	.	2B-y	[1d
.	8F#iL	.	.
.	8EJ	.	.
.	2F#i	[2A	.
=19	=19	=19	=19
1GG	2.G	4A]	1d]
.	.	4G	.
.	.	1G	.
.	8FL	.	.
.	8EJ	.	.
2r	1D	.	2r
2BB-y	.	2F	2d
=20	=20	=20	=20
2GG	2r	2G	2d
2.BB-y	2D	2F	2d
.	2D	1B-y	2f
4AA	.	.	.
2GG	2D	.	2g
=21	=21	=21	=21
2FF	2F	1A	2.a
2F	2D	.	.
.	.	.	4g
2D	2.F	2r	2b-y
[2F	.	4D	[2a
.	4G	4E	.
=22	=22	=22	=22
4F]	2.A	4F	4a]
4E	.	4G	4g
2D	.	4A	2f
.	4G	4B-y	.
2C	2A	2c	2e
2BB-y	[2B-y	2F	[2d
=23	=23	=23	=23
1E-i	2B-]	4G	4d]
.	.	4A	4G
.	4A	4B-y	1g
.	4G	4c	.
1D	1A	1d	.
.	.	.	2f#i
=24	=24	=24	=24
00GG	00G	00B-y	00g
=25||	=25||	=25||	=25||
*	*	*M2/1	*M2/1
*	*	*met(C|)	*met(C|)
!!section: Pleni sunt
!!!OMD: Pleni sunt
0r	0r	1G	1r
.	.	2G	1d
.	.	2G	.
=26	=26	=26	=26
0r	0r	2.B-y	2d
.	.	.	2d
.	.	4c	.
.	.	1d	2.f
.	.	.	4g
=27	=27	=27	=27
0r	0r	2r	1a
.	.	1d	.
.	.	.	2r
.	.	4c	[2a
.	.	4B-y	.
=28	=28	=28	=28
0r	0r	2c	2a]
.	.	2d	4g
.	.	.	4f
.	.	2B-y	2g
.	.	2c	2a
=29	=29	=29	=29
0r	0r	2d	2f
.	.	2e-i	2g
.	.	2c	2a
.	.	2d	2b-y
=30	=30	=30	=30
0r	0r	2B-y	2g
.	.	2.c	2.a
.	.	4B-y	4g
.	.	4A	[2g
.	.	4G	.
=31	=31	=31	=31
0r	0r	1A	2g]
.	.	.	2f#i
.	.	1G	[1g
=32	=32	=32	=32
0r	0r	2r	1g]
.	.	2G	.
.	.	2.B-y	2r
.	.	.	2d
.	.	4c	.
=33	=33	=33	=33
0r	0r	1d	2.f
.	.	.	4g
.	.	2r	1a
.	.	[2d	.
=34	=34	=34	=34
0r	0r	2d]	2r
.	.	2d	1a
.	.	1c	.
.	.	.	2a
=35	=35	=35	=35
0r	0r	1e-i	1g
.	.	2d	1b-y
.	.	2B-y	.
=36	=36	=36	=36
0r	0r	2c	2a
.	.	2d	2f
.	.	2e-i	2g
.	.	2c	2a
=37	=37	=37	=37
0r	0r	2d	2b-y
.	.	4r	2g
.	.	4B-y	.
.	.	2c	2a
.	.	2d	2b-y
=38	=38	=38	=38
0r	0r	2e-i	2.cc
.	.	2c	.
.	.	.	4b-y
.	.	2.d	4a
.	.	.	4g
.	.	.	[2b-y
.	.	4c	.
=39	=39	=39	=39
0r	0r	2B-y	4b-]
.	.	.	4a
.	.	2c	1g
.	.	1A	.
.	.	.	2f#i
=40	=40	=40	=40
00r	00r	00G	00g
=41||	=41||	=41||	=41||
*M3/1	*M3/1	*M3/1	*M3/1
*met(C|3)	*met(C|3)	*met(C|3)	*met(C|3)
!!section: Osanna
!!!OMD: Osanna
0D	0.r	1r	0.r
.	.	1r	.
1D	.	[1D	.
=42	=42	=42	=42
1.F	0.r	1D]	0.r
.	.	1D	.
2E	.	.	.
2D	.	[1F	.
2C	.	.	.
=43	=43	=43	=43
1.D	0.r	2F]	0.r
.	.	2G	.
.	.	1A	.
2C	.	.	.
2BB-y	.	[1B-y	.
2AA	.	.	.
=44	=44	=44	=44
1.GG	0D	2B-]	0.r
.	.	4A	.
.	.	4G	.
.	.	1B-y	.
2FF	.	.	.
[1F	1D	[1A	.
=45	=45	=45	=45
2F]	1.F	2A]	0.r
2E	.	2G	.
1D	.	2A	.
.	2G	2B-y	.
1C	1A	1c	.
=46	=46	=46	=46
1BB-y	0B-y	1.d	0.r
0E-i	.	.	.
.	.	4c	.
.	.	4B-y	.
.	1G	1c	.
=47	=47	=47	=47
0.D	1B-y	0d	1r
.	1.A	.	0d
.	.	1r	.
.	2G	.	.
=48	=48	=48	=48
0.r	2F	1.f	1d
.	2E	.	.
.	1.D	.	1.f
.	.	2e	.
.	.	1d	.
.	2E	.	2g
=49	=49	=49	=49
0.r	1F	1c	1a
.	2G	2B-y	1.b-y
.	2F	2A	.
.	2G	2B-y	.
.	2A	2c	4a
.	.	.	4g
=50	=50	=50	=50
1r	1B-y	1.d	1.f
1r	2BB-y	.	.
.	2C	2c	2e
1F	2D	1B-y	1d
.	2E	.	.
=51	=51	=51	=51
1F	1.F	2A	1c
.	.	2G	.
1D	.	2A	1f
.	2G	2B-y	.
1C	1A	1c	1e
=52	=52	=52	=52
1BB-y	1.B-y	1F	0d
0E-i	.	1.G	.
.	2A	.	.
.	1G	.	1c
.	.	2A	.
=53	=53	=53	=53
0D	0F	1B-y	0.d
.	.	0A	.
1r	[1D	.	.
=54	=54	=54	=54
1F	1D]	1r	1r
1D	1F	1r	1r
[1F	[1D	[1A	1d
=55	=55	=55	=55
2F]	1D]	2A]	1.f
2E	.	2F	.
1D	1F	1B-y	.
.	.	.	2g
1C	1E	1A	1a
=56	=56	=56	=56
1BB-y	0D	1.G	1b-y
0AA	.	.	0cc
.	.	4F#i	.
.	.	4E	.
.	1C	1F#i	.
=57	=57	=57	=57
*M2/1	*M2/1	*M2/1	*M2/1
*met(C|)	*met(C|)	*met(C|)	*met(C|)
1.GG	1D	2G	2.b-y
.	.	2G	.
.	.	.	4a
.	2r	2.B-y	4g
.	.	.	4f
2GG	[2B-y	.	2g
.	.	4c	.
=58	=58	=58	=58
2.BB-y	2B-]	4d	2f
.	.	4e	.
.	4A	2.f	2b-y
4C	4G	.	.
2D	2F	.	2a
.	.	4e	.
2GG	2G	4d	[2b-y
.	.	4c	.
=59	=59	=59	=59
2r	2D	1d	2b-]
2GG	1B-y	.	4a
.	.	.	4g
2.BB-y	.	2r	2f
.	4A	[2d	2b-y
4C	4G	.	.
=60	=60	=60	=60
2D	2F	2d]	4a
.	.	.	4g
2E-i	2G	2B-y	1g
2C	1A	2e-i	.
2D	.	[2d	2f#i
=61	=61	=61	=61
2GG	[0Gl	4d]	[0gl
.	.	4B-y	.
1C	.	1e-i	.
4BB-y	.	4d	.
4AA	.	4c	.
=62	=62	=62	=62
00GG	00G]	00B-y	00g]
=63||	=63||	=63||	=63||
*M2/1	*M2/1	*M2/1	*M2/1
*met(C|)	*met(C|)	*met(C|)	*met(C|)
!!section: Benedictus
!!!OMD: Benedictus
0r	1r	1D	0r
.	1D	2.F	.
.	.	4G	.
=64	=64	=64	=64
1D	2.F	2A	0r
.	.	2B-y	.
.	4G	.	.
2.F	2A	2A	.
.	[2B-y	[2d	.
8EL	.	.	.
8DJ	.	.	.
=65	=65	=65	=65
1E	2B-]	2d]	1r
.	4A	2c	.
.	4G	.	.
2D	2B-y	2d	1d
[2D	[2A	[2f	.
=66	=66	=66	=66
2D]	4A]	4f]	1e
.	4B-y	4e	.
2C	2c	2.e	.
4D	2F	.	1f
4E	.	4d	.
4F	[2A	[2d	.
4D	.	.	.
=67	=67	=67	=67
1E	2A]	4d]	1g
.	.	8c#iL	.
.	.	8BnXiJ	.
.	2G	2c#i	.
1D	2A	1d	2r
.	2A	.	2f
=68	=68	=68	=68
0r	2.B-y	2.G	2g
.	.	.	2.b-y
.	4A	4A	.
.	2G	4B-y	.
.	.	4A	4a
.	2F	[2c	[2a
=69	=69	=69	=69
1r	1E	4c]	4a]
.	.	4B-y	4g
.	.	4A	1g
.	.	4G	.
2r	2D	2A	.
2D	[2A	[2d	2f#i
=70	=70	=70	=70
2E	2A]	2d]	1g
2E	2G	2c#i	.
2.D	1A	2d	1r
.	.	[2f	.
4E	.	.	.
=71	=71	=71	=71
4F	0r	4f]	1r
4D	.	4e	.
2.G	.	4d	.
.	.	4c	.
.	.	4B-y	2r
4F	.	4c	.
4E	.	[2d	2f
4D	.	.	.
=72	=72	=72	=72
1E	1r	4d]	2g
.	.	4B-y	.
.	.	2c	2g
1D	2r	4F	2.f
.	.	4G	.
.	[2A	4A	.
.	.	4B-y	4e
=73	=73	=73	=73
0r	2A]	4c	4f
.	.	4d	4d
.	2G	2.e	2.g
.	2B-y	.	.
.	.	4d	4f
.	2B-y	[2d	4e
.	.	.	4d
=74	=74	=74	=74
0r	2.A	2d]	1e
.	.	2c#i	.
.	4G	.	.
.	2F	1d	2.d
.	2G	.	.
.	.	.	4e
=75	=75	=75	=75
2r	2D	2r	4f
.	.	.	4B-y
2G	4GG	4B-y	2.b-y
.	4AA	4c	.
2G	4BB-y	4d	.
.	4C	4e	4a
2F	4D	[2f	[2a
.	4E	.	.
=76	=76	=76	=76
2D	4F	4f]	2a]
.	4G	4e	.
2F	1A	1d	4g
.	.	.	4f
1E	.	.	1g
.	2G	2c#i	.
=77	=77	=77	=77
00Dl	00Al	00dl	00fl
==	==	==	==
*-	*-	*-	*-
!!!system-decoration: [*]
!!!RDF**kern: i = editorial accidental
!!!RDF**kern: l = terminal long
!!!ENC: Benjamin Ory
!!!END: 2024/11/21
!!!EED: Benjamin Ory
!!!EEV: 2024/11/21
!!!YEC: Copyright 2024 Benjamin Ory, All Rights Reserved
!!!ONB: Translated from MusicXML on 2024/11/21